packages/ui-icons/src/Service-logos/24/Radio-record.svg

<?xml version="1.0" encoding="UTF-8"?>
<svg viewBox="0 0 32 32" version="1.1" xmlns="http://www.w3.org/2000/svg" xmlns:xlink="http://www.w3.org/1999/xlink">
    <!-- Generator: Sketch 49 (51002) - http://www.bohemiancoding.com/sketch -->
    <title>logo/24/radio-record</title>
    <desc>Created with Sketch.</desc>
    <defs></defs>
    <g id="logo/24/radio-record" stroke="none" stroke-width="1" fill="none" fill-rule="evenodd">
        <circle id="Oval-2-Copy" fill="#333333" cx="16" cy="16" r="12"></circle>
        <path d="M15.9906869,17.821417 C15.6569253,17.819279 15.2510339,17.2247355 15.2597377,16.7509412 C15.2668042,16.3644321 15.6301244,16.0379723 16.0338613,16.055355 C16.4367364,16.0727377 16.7404225,16.3797698 16.7404225,16.7699041 C16.7403363,17.2511348 16.3321182,17.8236479 15.9906869,17.821417 M26.8992653,13.0038775 C24.0772307,13.8795224 20.1117149,15.1694719 17.4219618,16.1803676 L16.6750667,15.3437642 L15.3249333,15.3437642 L14.5781244,16.1803676 C11.8883713,15.1694719 7.92276933,13.8795224 5.1007347,13.0038775 C5.00335482,12.9736668 4.95707783,13.1287173 5.05195858,13.1670151 C9.1076154,14.8056423 13.3143403,16.6399418 14.7073897,19 L17.2926964,19 C18.6856597,16.6399418 22.8922984,14.8056423 26.9480414,13.1670151 C27.0429222,13.1287173 26.9966452,12.9736668 26.8992653,13.0038775" id="Page-1" fill="#FFFFFF"></path>
    </g>
</svg>

<svg viewBox="0 0 32 32" xmlns="http://www.w3.org/2000/svg"><g fill="none" fill-rule="evenodd"><circle fill="#333" cx="16" cy="16" r="12"/><path d="M15.99 17.821c-.333-.002-.739-.596-.73-1.07.007-.387.37-.713.774-.696.403.018.706.325.706.715 0 .481-.408 1.054-.75 1.051m10.91-4.817c-2.823.876-6.788 2.165-9.478 3.176l-.747-.836h-1.35l-.747.836c-2.69-1.01-6.655-2.3-9.477-3.176-.098-.03-.144.125-.049.163 4.056 1.639 8.262 3.473 9.655 5.833h2.586c1.393-2.36 5.6-4.194 9.655-5.833.095-.038.049-.193-.049-.163" fill="#FFF"/></g></svg>
